packages/appstore/src/assets/svgs/wallet/pay-livre-light.svg

<svg width="128" height="80" viewBox="0 0 128 80" fill="none" xmlns="http://www.w3.org/2000/svg">
<path fill-rule="evenodd" clip-rule="evenodd" d="M26.3504 48.1871C26.3504 47.7573 26.3642 47.2831 26.3688 46.8517C26.3596 46.8379 23.7331 47.7787 22.4314 48.2407L19.1426 49.4093C18.2905 49.7122 17.4339 49.9998 16.5926 50.3241C15.8339 50.6147 15.4407 51.1042 15.5249 51.9547C15.5555 52.279 15.918 53.0347 15.9578 53.0898C16.0037 53.1173 16.048 53.1509 16.0954 53.1754C16.637 53.4355 17.1999 53.645 17.7643 53.8485C18.8688 54.2538 19.9701 54.6638 21.0822 55.0416C21.9541 55.3369 22.826 55.6382 23.7148 55.8784C24.0299 55.964 24.3313 56.0344 24.6601 55.9778C25.3623 55.8554 25.8579 55.4914 26.121 54.8183C26.2969 54.3701 26.3657 53.902 26.3688 53.4293C26.3718 51.6824 26.3565 49.9356 26.3504 48.1871Z" fill="#0AD0DA"/>
<path fill-rule="evenodd" clip-rule="evenodd" d="M35.0626 35.332C35.0397 32.3078 35.055 29.2851 35.0473 26.2609C35.0443 25.7867 34.9663 25.3171 34.6894 24.9118C34.5655 24.7297 34.1815 24.3764 34.1479 24.3504C33.7915 24.0812 33.3739 23.997 32.9471 24.0001C32.5218 24.0047 32.1088 24.1179 31.708 24.2632C30.6862 24.6272 29.6674 25.0005 28.6456 25.3646C27.4754 25.7806 26.3006 26.1875 25.1289 26.6021C23.5533 27.1604 21.9762 27.7187 20.4006 28.2817C19.2641 28.687 18.1291 29.0939 17.0047 29.5299C16.9344 29.5559 16.3883 29.767 16.0778 29.9276C15.9875 29.975 15.9187 30.0178 15.885 30.05C14.8601 30.8209 15.2655 32.1885 15.7198 32.5434C16.246 32.9564 17.1286 33.0023 17.742 33.2271C18.4916 33.5055 19.2442 33.7778 19.9953 34.0501C21.2205 34.4937 22.4473 34.9297 23.668 35.3824C24.0658 35.5308 24.4528 35.6976 24.8107 35.9224C24.93 35.9989 25.0463 36.0784 25.1579 36.1672C25.678 36.5863 25.9993 37.1278 26.1629 37.7718C26.1813 37.8406 26.2042 37.9095 26.2241 37.9798C26.2333 37.9829 26.2425 38.0334 26.2547 38.1114L26.3404 38.9298L26.3557 39.0246C26.3526 39.5355 26.3496 40.0449 26.3496 40.5543V40.9245L26.3511 46.4864C26.3511 46.5659 26.3587 46.644 26.3633 46.722L26.3404 46.8551C26.348 46.8704 26.4857 46.8168 26.5545 46.7969C27.4586 46.5201 28.3534 46.2156 29.2453 45.9005C30.5134 45.4493 31.7799 44.998 33.0052 44.4382C33.4794 44.2225 33.9643 44.0144 34.281 43.5662C34.388 43.4148 34.6328 42.9957 34.6619 42.9437C35.0076 42.3119 35.0626 41.6159 35.0795 40.9168C35.0978 40.1673 35.0948 39.4147 35.0902 38.6636L35.0626 35.332Z" fill="#9A6BFC"/>
<path fill-rule="evenodd" clip-rule="evenodd" d="M26.3508 40.9235V40.5533L26.3538 39.0267L26.3447 38.9319C26.3416 38.9319 26.2835 38.3842 26.2544 38.112C26.2422 38.0339 26.233 37.9819 26.2238 37.9804C26.2039 37.91 26.181 37.8427 26.1626 37.7724C26.0005 37.1299 25.6777 36.5853 25.1576 36.1693C25.046 36.0805 24.9297 35.9979 24.8104 35.9245C24.4524 35.6996 24.0639 35.5314 23.6677 35.3845C22.447 34.9302 21.2202 34.4958 19.9965 34.0507C19.2439 33.7784 18.4913 33.5061 17.7417 33.2292C17.1299 33.0028 17.0931 33.1022 15.9749 32.3925C14.8583 31.6827 15.5711 30.3595 15.8847 30.0521C15.9183 30.0184 15.9872 29.9756 16.0774 29.9297H16.0728C15.1933 30.2647 14.586 30.8674 14.2785 31.7638C14.0705 32.368 14.0062 32.9952 14.0032 33.6269C13.9986 35.6844 14.0017 37.7433 14.0017 39.8023C14.0017 43.0023 13.9971 46.2009 14.0032 49.401C14.0062 50.2439 14.1026 51.076 14.4988 51.8393C14.817 52.4497 15.2942 52.8841 15.9596 53.0921C15.9138 53.0156 15.5573 52.2814 15.5252 51.9556C15.4426 51.1066 15.8357 50.6171 16.5945 50.3265C17.4358 50.0037 18.2924 49.7146 19.1429 49.4117L22.4317 48.243C23.7365 47.7811 25.0674 47.3176 26.3707 46.8541C26.3661 46.8082 26.3661 46.8082 26.3645 46.7225C26.36 46.6445 26.3523 46.565 26.3523 46.487V40.9235H26.3508Z" fill="#352CAA"/>
<path fill-rule="evenodd" clip-rule="evenodd" d="M114.566 37.7398C114.575 37.1096 114.046 36.5406 113.354 36.5559C112.69 36.5712 112.198 37.128 112.198 37.7398C112.198 38.3884 112.736 38.9315 113.394 38.9253C114.04 38.9192 114.577 38.3777 114.566 37.7398ZM113.379 36.4014C114.118 36.4014 114.72 37.0025 114.72 37.7383C114.72 38.4787 114.119 39.0798 113.38 39.0783C112.64 39.0768 112.042 38.471 112.045 37.7291C112.046 37.0056 112.651 36.4014 113.379 36.4014Z" fill="black"/>
<path fill-rule="evenodd" clip-rule="evenodd" d="M50.5275 37.809C50.5275 36.9417 49.9646 36.362 49.0804 36.362H47.231L46.8287 39.6921H48.6628C49.7565 39.6921 50.529 38.9196 50.529 37.8106L50.5275 37.809ZM53.4553 37.471C53.4553 40.1418 51.3964 42.0233 48.5175 42.0233H46.5381L46.0578 45.9316H43.2432L44.7055 34.0307H49.6602C52.0082 34.0307 53.4538 35.3983 53.4538 37.4725L53.4553 37.471ZM59.6612 41.156C59.6612 40.0607 59.161 39.3357 58.358 39.3357C57.3285 39.3357 56.5392 40.4477 56.5392 41.9438C56.5392 43.036 57.0225 43.7457 57.8103 43.7457C58.8551 43.7457 59.6612 42.6673 59.6612 41.156ZM62.9103 37.1666L61.8166 45.9316H59.5802L59.5006 44.6773C58.8245 45.5615 57.8746 46.0938 56.6371 46.0938C54.8014 46.0938 53.6939 44.5794 53.6939 42.3124C53.6939 39.2102 55.4133 37.0044 57.7629 37.0044C58.9683 37.0044 59.7882 37.601 60.2242 38.5983L60.6571 37.1666H62.9103ZM72.5718 37.165L71.5912 45.2234C71.27 47.8774 69.1789 49.6319 66.3643 49.6319C65.3654 49.6319 64.3375 49.4713 63.7577 49.2128L63.6292 46.9458C64.16 47.1539 65.0931 47.2992 65.9773 47.2992C67.5865 47.2992 68.7613 46.4624 68.9204 45.2081L68.9846 44.7415C68.1969 45.6594 67.1674 46.0938 66.219 46.0938C64.674 46.0938 63.903 45.1913 63.903 43.4872C63.903 43.2455 63.9183 42.9564 63.9505 42.6505L64.6266 37.1666H67.3601L66.733 42.2497C66.7177 42.3935 66.7177 42.522 66.7177 42.6352C66.7177 43.3755 67.0236 43.7457 67.6339 43.7457C68.4875 43.7457 69.13 42.9732 69.2753 41.7984L69.8535 37.1666H72.5718V37.165ZM84.3901 44.919L84.0841 45.9316H77.6013L79.0653 34.0292H80.2875L78.9521 44.919H84.3901ZM87.1848 33.3867H88.3749L88.1011 35.6369H86.911L87.1848 33.3867ZM86.703 37.4235H87.8594L86.8162 45.9316H85.6567L86.703 37.4235ZM96.7851 37.4251C96.7851 40.6405 94.824 44.0517 91.8962 45.9316H90.8499L89.4854 37.4251H90.7245L91.7524 44.9205C94.102 43.2318 95.6286 40.2718 95.6286 37.4251H96.7866H96.7851ZM103.826 37.2629L103.682 38.4362H102.959C101.044 38.4362 99.6135 39.7548 99.3565 41.7663L98.841 45.9316H97.683L98.7446 37.4235H99.7267L99.5813 39.5804C100.322 38.1303 101.591 37.2629 103.265 37.2629H103.826ZM105.128 41.0596H109.92C109.937 40.8975 109.937 40.769 109.937 40.6236C109.937 39.1597 109.229 38.2435 108.025 38.2435C106.56 38.2435 105.466 39.3372 105.128 41.0581V41.0596ZM111.063 40.7047C111.063 40.9464 111.048 41.2202 111.016 41.4772L110.967 41.8948H105.032C105.016 42.0065 105.016 42.1197 105.016 42.2313C105.016 44.0976 105.933 45.1117 107.735 45.1117C108.668 45.1117 109.601 44.9022 110.324 44.5656L110.018 45.5446C109.278 45.8842 108.33 46.0938 107.332 46.0938C105.048 46.0938 103.809 44.7415 103.809 42.3614C103.809 39.3066 105.676 37.2629 108.2 37.2629C110.002 37.2629 111.063 38.6136 111.063 40.7047ZM113.044 37.7708H113.099C113.225 37.7708 113.35 37.7708 113.477 37.7647C113.521 37.7647 113.566 37.757 113.61 37.7448C113.693 37.7188 113.74 37.6576 113.754 37.5719C113.766 37.4893 113.735 37.419 113.665 37.3715C113.621 37.3409 113.572 37.3287 113.518 37.3287L113.058 37.3241L113.044 37.3256V37.7708ZM113.044 38.5203H112.867V37.1742H112.882C113.085 37.1742 113.289 37.1742 113.491 37.1773C113.552 37.1773 113.61 37.1834 113.67 37.1926C113.803 37.217 113.887 37.2996 113.924 37.4297C113.96 37.5628 113.939 37.6851 113.843 37.7907C113.787 37.8473 113.717 37.8733 113.641 37.8932C113.618 37.8993 113.595 37.9039 113.569 37.913L113.576 37.9161C113.671 37.962 113.737 38.0385 113.794 38.1226L114.034 38.4928C114.037 38.5004 114.04 38.5081 114.046 38.5157L114.031 38.5188H113.836C113.824 38.5203 113.821 38.5127 113.817 38.5035C113.746 38.3964 113.679 38.2863 113.605 38.1792C113.564 38.118 113.52 38.0584 113.471 38.0018C113.428 37.9528 113.37 37.9253 113.303 37.9253C113.22 37.9253 113.137 37.9253 113.056 37.9222H113.044V38.5203Z" fill="black"/>
</svg>

<svg width="128" height="80" fill="none" xmlns="http://www.w3.org/2000/svg"><path fill-rule="evenodd" clip-rule="evenodd" d="M26.35 48.187c0-.43.014-.904.019-1.335-.01-.014-2.636.927-3.938 1.389l-3.288 1.168c-.852.303-1.71.59-2.55.915-.76.29-1.152.78-1.068 1.63.03.325.393 1.08.433 1.136.046.027.09.06.137.085.542.26 1.105.47 1.67.674 1.104.405 2.205.815 3.317 1.193.872.295 1.744.596 2.633.836.315.086.616.156.945.1.702-.123 1.198-.487 1.461-1.16.176-.448.245-.916.248-1.389.003-1.747-.012-3.493-.019-5.242z" fill="#0AD0DA"/><path fill-rule="evenodd" clip-rule="evenodd" d="M35.063 35.332c-.023-3.024-.008-6.047-.016-9.071-.003-.474-.08-.944-.358-1.35-.123-.181-.508-.535-.541-.56-.357-.27-.774-.354-1.2-.35-.426.004-.84.117-1.24.262-1.022.364-2.04.737-3.062 1.102-1.17.416-2.345.823-3.517 1.237-1.576.558-3.153 1.117-4.728 1.68-1.137.405-2.272.812-3.396 1.248-.07.026-.617.237-.927.398a.963.963 0 0 0-.193.122c-1.025.77-.62 2.138-.165 2.493.526.413 1.409.46 2.022.684.75.279 1.502.55 2.253.823 1.226.444 2.452.88 3.673 1.332.398.149.785.316 1.143.54.119.077.235.156.347.245.52.42.841.96 1.005 1.605.018.069.041.138.061.208.01.003.018.053.03.131l.086.819.016.095c-.003.51-.006 1.02-.006 1.53v.37l.001 5.561c0 .08.008.158.012.236l-.023.133c.008.015.146-.038.215-.058a66.72 66.72 0 0 0 2.69-.896c1.268-.452 2.535-.903 3.76-1.463.474-.216.96-.424 1.276-.872.107-.151.352-.57.38-.622.347-.632.402-1.328.419-2.027.018-.75.015-1.502.01-2.253l-.027-3.332z" fill="#9A6BFC"/><path fill-rule="evenodd" clip-rule="evenodd" d="M26.35 40.923v-.37l.004-1.526-.01-.095c-.002 0-.06-.548-.09-.82-.012-.078-.021-.13-.03-.132-.02-.07-.043-.137-.061-.208-.163-.642-.485-1.187-1.005-1.603a3.537 3.537 0 0 0-.348-.244 6.147 6.147 0 0 0-1.142-.54c-1.221-.455-2.448-.89-3.671-1.334-.753-.273-1.506-.545-2.255-.822-.612-.226-.649-.127-1.767-.837-1.117-.71-.404-2.033-.09-2.34a.843.843 0 0 1 .192-.122h-.004c-.88.335-1.487.937-1.795 1.834-.208.604-.272 1.231-.275 1.863-.004 2.057-.001 4.116-.001 6.175 0 3.2-.005 6.399.001 9.599.003.843.1 1.675.496 2.438.318.61.795 1.045 1.46 1.253-.045-.076-.402-.81-.434-1.136-.082-.85.31-1.339 1.07-1.63.84-.322 1.697-.611 2.548-.914l3.289-1.169c1.305-.462 2.635-.925 3.939-1.389-.005-.046-.005-.046-.006-.132-.005-.078-.013-.157-.013-.235v-5.564h-.001z" fill="#352CAA"/><path fill-rule="evenodd" clip-rule="evenodd" d="M114.566 37.74a1.184 1.184 0 1 0-2.368 0c0 .648.538 1.191 1.196 1.185.646-.006 1.183-.547 1.172-1.185zm-1.187-1.339a1.34 1.34 0 1 1 .001 2.677 1.342 1.342 0 0 1-1.335-1.349 1.344 1.344 0 0 1 1.334-1.328z" fill="#000"/><path fill-rule="evenodd" clip-rule="evenodd" d="M50.528 37.809c0-.867-.563-1.447-1.448-1.447h-1.849l-.402 3.33h1.834c1.094 0 1.866-.772 1.866-1.881l-.002-.002zm2.927-.338c0 2.67-2.059 4.552-4.938 4.552h-1.979l-.48 3.909h-2.815l1.462-11.901h4.955c2.348 0 3.794 1.367 3.794 3.441l.001-.001zm6.206 3.685c0-1.095-.5-1.82-1.303-1.82-1.03 0-1.819 1.112-1.819 2.608 0 1.092.483 1.802 1.271 1.802 1.045 0 1.851-1.079 1.851-2.59zm3.25-3.99-1.094 8.766H59.58l-.08-1.255c-.675.885-1.625 1.417-2.863 1.417-1.836 0-2.943-1.515-2.943-3.782 0-3.102 1.72-5.308 4.069-5.308 1.205 0 2.025.597 2.461 1.594l.433-1.431h2.253zm9.66-.001-.98 8.058c-.321 2.654-2.412 4.409-5.227 4.409-.999 0-2.026-.16-2.606-.42l-.129-2.266c.531.208 1.464.353 2.348.353 1.61 0 2.784-.837 2.943-2.09l.065-.468c-.788.918-1.818 1.353-2.766 1.353-1.545 0-2.316-.903-2.316-2.607 0-.242.015-.53.047-.837l.677-5.483h2.733l-.627 5.083c-.015.144-.015.272-.015.385 0 .74.306 1.11.916 1.11.853 0 1.496-.772 1.641-1.947l.578-4.631h2.719v-.002zm11.82 7.754-.307 1.013h-6.483l1.464-11.903h1.222l-1.335 10.89h5.438zm2.794-11.532h1.19l-.274 2.25h-1.19l.274-2.25zm-.482 4.036h1.156l-1.043 8.509h-1.16l1.047-8.509zm10.082.002c0 3.216-1.961 6.627-4.889 8.507H90.85l-1.365-8.507h1.24l1.027 7.495c2.35-1.688 3.877-4.648 3.877-7.495h1.158-.002zm7.041-.162-.144 1.173h-.723c-1.915 0-3.346 1.319-3.603 3.33l-.515 4.166h-1.158l1.062-8.509h.982l-.146 2.157c.741-1.45 2.01-2.317 3.684-2.317h.561zm1.302 3.797h4.792c.017-.163.017-.291.017-.436 0-1.464-.708-2.38-1.912-2.38-1.465 0-2.559 1.093-2.897 2.814v.002zm5.935-.355c0 .241-.015.515-.047.772l-.049.418h-5.935c-.016.111-.016.225-.016.336 0 1.867.917 2.88 2.719 2.88.933 0 1.866-.209 2.589-.545l-.306.979c-.74.34-1.688.549-2.686.549-2.284 0-3.523-1.352-3.523-3.733 0-3.054 1.867-5.098 4.391-5.098 1.802 0 2.863 1.35 2.863 3.442zm1.981-2.934h.055c.126 0 .251 0 .378-.006a.502.502 0 0 0 .133-.02.202.202 0 0 0 .144-.173.196.196 0 0 0-.089-.2.249.249 0 0 0-.147-.043l-.46-.005-.014.002v.445zm0 .75h-.177v-1.347h.015c.203 0 .407 0 .609.003.061 0 .119.006.179.016a.309.309 0 0 1 .254.237.364.364 0 0 1-.081.36.417.417 0 0 1-.202.103c-.023.006-.046.01-.072.02l.007.003a.568.568 0 0 1 .218.207l.24.37c.003.007.006.015.012.023l-.015.003h-.195c-.012.001-.015-.006-.019-.015-.071-.108-.138-.218-.212-.325a1.801 1.801 0 0 0-.134-.177.218.218 0 0 0-.168-.077c-.083 0-.166 0-.247-.003h-.012v.598z" fill="#000"/></svg>
